!!!OTL: BRUEDER JETZT GEHTS IN DEN KRIEG
!!!ARE: Europa, Mitteleuropa, Deutschland, Sueddeutschland
!!!SCT: E1344
!!!YEM: Copyright 1995, estate of Helmut Schaffrath.
**kern
*ICvox
*Ivox
*M3/4
*k[b-e-]
*B-:
=1
{8f
8b-
8b-
8b-
8b-
8cc
=2
4b-
8a
8g
4f}
=3
{8g
8g
4g
4b-
=4
4.f
8e-
4d}
=5
{4f
4f
4b-
=6
4.g
8g
4g}
=7
{8b-
8b-
4a
4cc
=8
8b-
8a
8b-
8cc
4dd}
=9
{8ee-
8gg
4ff
8ee-
8ee-
=10
2.dd}
==
!!!AGN: Staende -, Soldaten -, Kriegs - Lied
!!!ONB: ESAC (Essen Associative Code) Database: ERK3
!!!AMT: simple triple
!!!AIN: vox
!!!EED: Helmut Schaffrath
!!!EEV: 1.0
*-
